www/assets/icons/upcoming.svg

<svg xmlns="http://www.w3.org/2000/svg" width="24" height="24" viewBox="0 0 24 24" fill='currentColor'><path d="m21.16 7.26-1.41-1.41-3.56 3.55 1.41 1.41s3.45-3.52 3.56-3.55M13 3h-2v5h2zm-6.6 7.81L7.81 9.4 4.26 5.84 2.84 7.26c.11.03 3.56 3.55 3.56 3.55M20 12h-5c0 1.66-1.34 3-3 3s-3-1.34-3-3H4c-1.1 0-2 .9-2 2v5c0 1.1.9 2 2 2h16c1.1 0 2-.9 2-2v-5c0-1.1-.9-2-2-2"/></svg>

<svg width="24" height="24" viewBox="0 0 24 24" xmlns="http://www.w3.org/2000/svg" fill='currentColor'><path d="M21.16 7.26L19.75 5.85L16.19 9.4L17.6 10.81C17.6 10.81 21.05 7.29 21.16 7.26Z"/><path d="M13 3H11V8H13V3Z"/><path d="M6.4 10.81L7.81 9.4L4.26 5.84L2.84 7.26C2.95 7.29 6.4 10.81 6.4 10.81Z"/><path d="M20 12H15C15 13.66 13.66 15 12 15C10.34 15 9 13.66 9 12H4C2.9 12 2 12.9 2 14V19C2 20.1 2.9 21 4 21H20C21.1 21 22 20.1 22 19V14C22 12.9 21.1 12 20 12Z"/></svg>
